icons/lines/group-one.svg

<svg xmlns="http://www.w3.org/2000/svg" width="24" height="24" viewBox="0 0 24 24" fill="none" stroke="currentColor" stroke-width="2" stroke-linecap="round" stroke-linejoin="round">
  <path d="M12 5.56h10" />
  <path d="M19.78 2C21.56 2 22 2.44 22 4.2v4.11c0 1.76-.44 2.2-2.22 2.2h-5.56c-1.78 0-2.22-.44-2.22-2.2V4.2c0-1.76.44-2.2 2.22-2.2z" />
  <path d="M2 17.06h10" />
  <path d="M2 9a7 7 0 0 1 7-7L7.95 3.75" />
  <path d="M22 15a7 7 0 0 1-7 7l1.05-1.75" />
  <path d="M9.78 13.5c1.78 0 2.22.44 2.22 2.2v4.11c0 1.76-.44 2.2-2.22 2.2H4.22c-1.78 0-2.22-.44-2.22-2.2V15.7c0-1.76.44-2.2 2.22-2.2z" />
</svg>

<svg xmlns="http://www.w3.org/2000/svg" width="24" height="24" viewBox="0 0 24 24" fill="none" stroke="currentColor" stroke-width="2" stroke-linecap="round" stroke-linejoin="round" >
  <path d="M12 5.56H22" stroke-miterlimit="10"/>
  <path d="M14.22 2H19.78C21.56 2 22 2.44 22 4.2V8.31C22 10.07 21.56 10.51 19.78 10.51H14.22C12.44 10.51 12 10.07 12 8.31V4.2C12 2.44 12.44 2 14.22 2Z"/>
  <path d="M2 17.06H12" stroke-miterlimit="10"/>
  <path d="M4.22 13.5H9.78C11.56 13.5 12 13.94 12 15.7V19.81C12 21.57 11.56 22.01 9.78 22.01H4.22C2.44 22.01 2 21.57 2 19.81V15.7C2 13.94 2.44 13.5 4.22 13.5Z"/>
  <path d="M22 15C22 18.87 18.87 22 15 22L16.05 20.25"/>
  <path d="M2 9C2 5.13 5.13 2 9 2L7.95001 3.75"/>
  </svg>
